icons/svg/timer-3.svg

<svg xmlns="http://www.w3.org/2000/svg" version="1.1" baseProfile="full" width="24" height="24" viewBox="0 0 24.00 24.00" xml:space="preserve"><path fill="#000" fill-opacity="1" stroke-linejoin="round" d="M20.87 14.37c-.14-.28-.35-.53-.63-.74-.28-.21-.61-.39-1.01-.53s-.85-.27-1.35-.38c-.35-.07-.64-.15-.87-.23-.23-.08-.41-.16-.55-.25-.14-.09-.23-.19-.28-.3-.05-.11-.08-.24-.08-.39 0-.15.03-.28.09-.41.06-.13.15-.25.27-.34.12-.1.27-.18.45-.24s.4-.09.64-.09c.25 0 .47.04.66.11.19.07.35.17.48.29.13.12.22.26.29.42.06.16.1.32.1.49h1.95c0-.39-.08-.75-.24-1.09-.16-.34-.39-.63-.69-.88-.3-.25-.66-.44-1.09-.59-.43-.15-.92-.22-1.46-.22-.51 0-.98.07-1.39.21-.41.14-.77.33-1.06.57-.29.24-.51.52-.67.84-.16.32-.23.65-.23 1.01s.08.68.23.96c.15.28.37.52.64.73.27.21.6.38.98.53.38.14.81.26 1.27.36.39.08.71.17.95.26s.43.19.57.29c.13.1.22.22.27.34.05.12.07.25.07.39 0 .32-.13.57-.4.77-.27.2-.66.29-1.17.29-.22 0-.43-.02-.64-.08-.21-.05-.4-.13-.56-.24-.17-.11-.3-.26-.41-.44-.11-.18-.17-.41-.18-.67h-1.89c0 .36.08.71.24 1.05.16.34.39.65.7.93.31.27.69.49 1.15.66.46.17.98.25 1.58.25.53 0 1.01-.06 1.44-.19.43-.13.8-.31 1.11-.54.31-.23.54-.51.71-.83.17-.32.25-.67.25-1.06-.02-.4-.09-.74-.24-1.02zm-9.26-1.4c-.16-.24-.36-.46-.62-.65-.25-.19-.56-.35-.93-.48.3-.14.57-.3.8-.5.23-.2.42-.41.57-.64.15-.23.27-.46.34-.71.08-.24.11-.49.11-.73 0-.55-.09-1.04-.28-1.46-.18-.42-.44-.77-.78-1.06-.33-.28-.73-.5-1.2-.64-.45-.13-.97-.2-1.53-.2-.55 0-1.06.08-1.52.24-.47.17-.87.4-1.2.69-.33.29-.6.63-.78 1.03-.2.39-.29.83-.29 1.29h1.98c0-.26.05-.49.14-.69.09-.2.22-.38.38-.52.17-.14.36-.25.58-.33.22-.08.46-.12.73-.12.61 0 1.06.16 1.36.47.3.31.44.75.44 1.32 0 .27-.04.52-.12.74-.08.22-.21.41-.38.57-.17.16-.38.28-.63.37-.25.09-.55.13-.89.13H6.72v1.57H7.9c.34 0 .64.04.91.11.27.08.5.19.69.35.19.16.34.36.44.61.1.24.16.54.16.87 0 .62-.18 1.09-.53 1.42-.35.33-.84.49-1.45.49-.29 0-.56-.04-.8-.13-.24-.08-.44-.2-.61-.36-.17-.16-.3-.34-.39-.56-.09-.22-.14-.46-.14-.72H4.19c0 .55.11 1.03.32 1.45.21.42.5.77.86 1.05s.77.49 1.24.63.96.21 1.48.21c.57 0 1.09-.08 1.58-.23.49-.15.91-.38 1.26-.68.36-.3.64-.66.84-1.1.2-.43.3-.93.3-1.48 0-.29-.04-.58-.11-.86-.08-.25-.19-.51-.35-.76z"/></svg>

﻿<?xml version="1.0" encoding="utf-8"?>
<!DOCTYPE svg PUBLIC "-//W3C//DTD SVG 1.1//EN" "http://www.w3.org/Graphics/SVG/1.1/DTD/svg11.dtd">
<svg xmlns="http://www.w3.org/2000/svg" xmlns:xlink="http://www.w3.org/1999/xlink" version="1.1" baseProfile="full" width="24" height="24" viewBox="0 0 24.00 24.00" enable-background="new 0 0 24.00 24.00" xml:space="preserve">
	<path fill="#000000" fill-opacity="1" stroke-linejoin="round" d="M 20.87,14.37C 20.73,14.09 20.52,13.84 20.24,13.63C 19.96,13.42 19.63,13.24 19.23,13.1C 18.83,12.96 18.38,12.83 17.88,12.72C 17.53,12.65 17.24,12.57 17.01,12.49C 16.78,12.41 16.6,12.33 16.46,12.24C 16.32,12.15 16.23,12.05 16.18,11.94C 16.13,11.83 16.1,11.7 16.1,11.55C 16.1,11.4 16.13,11.27 16.19,11.14C 16.25,11.01 16.34,10.89 16.46,10.8C 16.58,10.7 16.73,10.62 16.91,10.56C 17.09,10.5 17.31,10.47 17.55,10.47C 17.8,10.47 18.02,10.51 18.21,10.58C 18.4,10.65 18.56,10.75 18.69,10.87C 18.82,10.99 18.91,11.13 18.98,11.29C 19.04,11.45 19.08,11.61 19.08,11.78L 21.03,11.78C 21.03,11.39 20.95,11.03 20.79,10.69C 20.63,10.35 20.4,10.06 20.1,9.81C 19.8,9.56 19.44,9.37 19.01,9.22C 18.58,9.07 18.09,9 17.55,9C 17.04,9 16.57,9.07 16.16,9.21C 15.75,9.35 15.39,9.54 15.1,9.78C 14.81,10.02 14.59,10.3 14.43,10.62C 14.27,10.94 14.2,11.27 14.2,11.63C 14.2,11.99 14.28,12.31 14.43,12.59C 14.58,12.87 14.8,13.11 15.07,13.32C 15.34,13.53 15.67,13.7 16.05,13.85C 16.43,13.99 16.86,14.11 17.32,14.21C 17.71,14.29 18.03,14.38 18.27,14.47C 18.51,14.56 18.7,14.66 18.84,14.76C 18.97,14.86 19.06,14.98 19.11,15.1C 19.16,15.22 19.18,15.35 19.18,15.49C 19.18,15.81 19.05,16.06 18.78,16.26C 18.51,16.46 18.12,16.55 17.61,16.55C 17.39,16.55 17.18,16.53 16.97,16.47C 16.76,16.42 16.57,16.34 16.41,16.23C 16.24,16.12 16.11,15.97 16,15.79C 15.89,15.61 15.83,15.38 15.82,15.12L 13.93,15.12C 13.93,15.48 14.01,15.83 14.17,16.17C 14.33,16.51 14.56,16.82 14.87,17.1C 15.18,17.37 15.56,17.59 16.02,17.76C 16.48,17.93 17,18.01 17.6,18.01C 18.13,18.01 18.61,17.95 19.04,17.82C 19.47,17.69 19.84,17.51 20.15,17.28C 20.46,17.05 20.69,16.77 20.86,16.45C 21.03,16.13 21.11,15.78 21.11,15.39C 21.09,14.99 21.02,14.65 20.87,14.37 Z M 11.61,12.97C 11.45,12.73 11.25,12.51 10.99,12.32C 10.74,12.13 10.43,11.97 10.06,11.84C 10.36,11.7 10.63,11.54 10.86,11.34C 11.09,11.14 11.28,10.93 11.43,10.7C 11.58,10.47 11.7,10.24 11.77,9.99C 11.85,9.75 11.88,9.5 11.88,9.26C 11.88,8.71 11.79,8.22 11.6,7.8C 11.42,7.38 11.16,7.03 10.82,6.74C 10.49,6.46 10.09,6.24 9.62,6.1C 9.17,5.97 8.65,5.9 8.09,5.9C 7.54,5.9 7.03,5.98 6.57,6.14C 6.1,6.31 5.7,6.54 5.37,6.83C 5.04,7.12 4.77,7.46 4.59,7.86C 4.39,8.25 4.3,8.69 4.3,9.15L 6.28,9.15C 6.28,8.89 6.33,8.66 6.42,8.46C 6.51,8.26 6.64,8.08 6.8,7.94C 6.97,7.8 7.16,7.69 7.38,7.61C 7.6,7.53 7.84,7.49 8.11,7.49C 8.72,7.49 9.17,7.65 9.47,7.96C 9.77,8.27 9.91,8.71 9.91,9.28C 9.91,9.55 9.87,9.8 9.79,10.02C 9.71,10.24 9.58,10.43 9.41,10.59C 9.24,10.75 9.03,10.87 8.78,10.96C 8.53,11.05 8.23,11.09 7.89,11.09L 6.72,11.09L 6.72,12.66L 7.9,12.66C 8.24,12.66 8.54,12.7 8.81,12.77C 9.08,12.85 9.31,12.96 9.5,13.12C 9.69,13.28 9.84,13.48 9.94,13.73C 10.04,13.97 10.1,14.27 10.1,14.6C 10.1,15.22 9.92,15.69 9.57,16.02C 9.22,16.35 8.73,16.51 8.12,16.51C 7.83,16.51 7.56,16.47 7.32,16.38C 7.08,16.3 6.88,16.18 6.71,16.02C 6.54,15.86 6.41,15.68 6.32,15.46C 6.23,15.24 6.18,15 6.18,14.74L 4.19,14.74C 4.19,15.29 4.3,15.77 4.51,16.19C 4.72,16.61 5.01,16.96 5.37,17.24C 5.73,17.52 6.14,17.73 6.61,17.87C 7.08,18.01 7.57,18.08 8.09,18.08C 8.66,18.08 9.18,18 9.67,17.85C 10.16,17.7 10.58,17.47 10.93,17.17C 11.29,16.87 11.57,16.51 11.77,16.07C 11.97,15.64 12.07,15.14 12.07,14.59C 12.07,14.3 12.03,14.01 11.96,13.73C 11.88,13.48 11.77,13.22 11.61,12.97 Z "/>
</svg>
